packages/ui-icons/svg/Line/discussion-search.svg

<svg viewBox="0 0 1920 1920" version="1.1" xmlns="http://www.w3.org/2000/svg">
    <path d="M790.588235,1468.23529 C416.865882,1468.23529 112.941176,1164.31059 112.941176,790.588235 C112.941176,416.865882 416.865882,112.941176 790.588235,112.941176 C1164.31059,112.941176 1468.23529,416.865882 1468.23529,790.588235 C1468.23529,1164.31059 1164.31059,1468.23529 790.588235,1468.23529 L790.588235,1468.23529 Z M1387.36941,1307.52 C1507.76471,1168.82824 1581.17647,988.235294 1581.17647,790.588235 C1581.17647,354.748235 1226.42824,2.84217094e-14 790.588235,2.84217094e-14 C354.748235,2.84217094e-14 2.84217094e-14,354.748235 2.84217094e-14,790.588235 C2.84217094e-14,1226.42824 354.748235,1581.17647 790.588235,1581.17647 C988.235294,1581.17647 1168.82824,1507.76471 1307.52,1387.36941 L1823.54824,1903.51059 L1903.51059,1823.54824 L1387.36941,1307.52 Z" stroke="none" stroke-width="1" fill-rule="evenodd"/>
</svg>

<svg viewBox="0 0 1920 1920" version="1.1" xmlns="http://www.w3.org/2000/svg">
    <path d="M790.588 1468.235c-373.722 0-677.647-303.924-677.647-677.647 0-373.722 303.925-677.647 677.647-677.647 373.723 0 677.647 303.925 677.647 677.647 0 373.723-303.924 677.647-677.647 677.647zm596.781-160.715c120.396-138.692 193.807-319.285 193.807-516.932C1581.176 354.748 1226.428 0 790.588 0S0 354.748 0 790.588s354.748 790.588 790.588 790.588c197.647 0 378.24-73.411 516.932-193.807l516.028 516.142 79.963-79.963-516.142-516.028z" stroke="none" stroke-width="1" fill-rule="evenodd"/>
</svg>
